papirus/48x48/apps/screencloud.svg

<?xml version="1.0" encoding="UTF-8" standalone="no"?>
<!-- Created with Inkscape (http://www.inkscape.org/) -->

<svg
   xmlns:dc="http://purl.org/dc/elements/1.1/"
   xmlns:cc="http://creativecommons.org/ns#"
   xmlns:rdf="http://www.w3.org/1999/02/22-rdf-syntax-ns#"
   xmlns:svg="http://www.w3.org/2000/svg"
   xmlns="http://www.w3.org/2000/svg"
   xmlns:sodipodi="http://sodipodi.sourceforge.net/DTD/sodipodi-0.dtd"
   xmlns:inkscape="http://www.inkscape.org/namespaces/inkscape"
   id="svg2817"
   height="48"
   width="48"
   version="1.0"
   inkscape:version="0.91 r13725"
   sodipodi:docname="screencloud.svg">
  <defs
     id="defs13" />
  <sodipodi:namedview
     pagecolor="#ffffff"
     bordercolor="#666666"
     borderopacity="1"
     objecttolerance="10"
     gridtolerance="10"
     guidetolerance="10"
     inkscape:pageopacity="0"
     inkscape:pageshadow="2"
     inkscape:window-width="1600"
     inkscape:window-height="849"
     id="namedview11"
     showgrid="false"
     inkscape:zoom="1"
     inkscape:cx="19.530772"
     inkscape:cy="23.967244"
     inkscape:window-x="0"
     inkscape:window-y="0"
     inkscape:window-maximized="1"
     inkscape:current-layer="svg2817" />
  <metadata
     id="metadata57">
    <rdf:RDF>
      <cc:Work
         rdf:about="">
        <dc:format>image/svg+xml</dc:format>
        <dc:type
           rdf:resource="http://purl.org/dc/dcmitype/StillImage" />
        <dc:title></dc:title>
      </cc:Work>
    </rdf:RDF>
  </metadata>
  <path
     style="opacity:1;fill:#569cde;fill-opacity:1;stroke:none;stroke-width:2;stroke-linecap:round;stroke-linejoin:round;stroke-miterlimit:4;stroke-dasharray:none;stroke-opacity:1"
     d="M 21,6 A 15,15 0 0 0 6,21 15,15 0 0 0 6.5019531,24.816406 C 3.8350344,26.126206 2,28.885344 2,32.101562 l 0,1.796876 C 2,38.386329 5.5647695,42 9.9921875,42 L 38.007812,42 C 42.435231,42 46,38.386329 46,33.898438 l 0,-1.796876 c 0,-3.400889 -2.048652,-6.295442 -4.966797,-7.5 A 9,9 0 0 0 43,19 9,9 0 0 0 34,10 9,9 0 0 0 31.541016,10.345703 15,15 0 0 0 21,6 Z"
     id="rect4141"
     inkscape:connector-curvature="0" />
  <path
     style="opacity:0.2;fill:#ffffff;fill-opacity:1;stroke:none;stroke-width:2;stroke-linecap:round;stroke-linejoin:round;stroke-miterlimit:4;stroke-dasharray:none;stroke-opacity:1"
     d="M 21 6 A 15 15 0 0 0 6 21 A 15 15 0 0 0 6.0214844 21.402344 A 15 15 0 0 1 21 7 A 15 15 0 0 1 31.541016 11.345703 A 9 9 0 0 1 34 11 A 9 9 0 0 1 42.978516 19.5625 A 9 9 0 0 0 43 19 A 9 9 0 0 0 34 10 A 9 9 0 0 0 31.541016 10.345703 A 15 15 0 0 0 21 6 z M 41.560547 24.867188 A 9 9 0 0 1 41.033203 25.601562 C 43.951348 26.80612 46 29.700674 46 33.101562 L 46 32.101562 C 46 28.914018 44.189035 26.190548 41.560547 24.867188 z M 6.2988281 24.935547 C 3.7463901 26.284803 2 28.970724 2 32.101562 L 2 33.101562 C 2 29.885344 3.8350344 27.126206 6.5019531 25.816406 A 15 15 0 0 1 6.2988281 24.935547 z "
     id="path4148" />
  <path
     style="opacity:0.3;fill:#000000;fill-opacity:1;stroke:none;stroke-width:2;stroke-linecap:round;stroke-linejoin:round;stroke-miterlimit:4;stroke-dasharray:none;stroke-opacity:1"
     d="M 42.978516 18.5625 A 9 9 0 0 1 41.033203 23.601562 C 41.216264 23.677127 41.38462 23.778614 41.560547 23.867188 A 9 9 0 0 0 43 19 A 9 9 0 0 0 42.978516 18.5625 z M 6.0214844 20.402344 A 15 15 0 0 0 6 21 A 15 15 0 0 0 6.2988281 23.935547 C 6.3684345 23.898752 6.4311555 23.851177 6.5019531 23.816406 A 15 15 0 0 1 6.0214844 20.402344 z M 2 32.898438 L 2 33.898438 C 2 38.386329 5.5647695 42 9.9921875 42 L 38.007812 42 C 42.435232 42 46 38.386329 46 33.898438 L 46 32.898438 C 46 37.386329 42.435232 41 38.007812 41 L 9.9921875 41 C 5.5647695 41 2 37.386329 2 32.898438 z "
     id="path4153" />
  <path
     id="path4170"
     d="M 24,15 A 12,12 0 0 0 12,27 12,12 0 0 0 24,39 12,12 0 0 0 36,27 12,12 0 0 0 24,15 Z m 0,3 a 9,9 0 0 1 9,9 9,9 0 0 1 -9,9 9,9 0 0 1 -9,-9 9,9 0 0 1 9,-9 z"
     style="opacity:0.2;fill:#000000;fill-opacity:1;stroke:none;stroke-width:2;stroke-linecap:round;stroke-linejoin:round;stroke-miterlimit:4;stroke-dasharray:none;stroke-opacity:1"
     inkscape:connector-curvature="0" />
  <path
     style="opacity:1;fill:#aaceee;fill-opacity:1;stroke:none;stroke-width:2;stroke-linecap:round;stroke-linejoin:round;stroke-miterlimit:4;stroke-dasharray:none;stroke-opacity:1"
     d="M 24 14 A 12 12 0 0 0 12 26 A 12 12 0 0 0 24 38 A 12 12 0 0 0 36 26 A 12 12 0 0 0 24 14 z M 24 17 A 9 9 0 0 1 33 26 A 9 9 0 0 1 24 35 A 9 9 0 0 1 15 26 A 9 9 0 0 1 24 17 z "
     id="path4167" />
  <path
     id="path4172"
     d="m 24,21 a 6,6 0 0 0 -6,6 6,6 0 0 0 6,6 6,6 0 0 0 6,-6 6,6 0 0 0 -6,-6 z"
     style="opacity:0.2;fill:#000000;fill-opacity:1;stroke:none;stroke-width:2;stroke-linecap:round;stroke-linejoin:round;stroke-miterlimit:4;stroke-dasharray:none;stroke-opacity:1"
     inkscape:connector-curvature="0" />
  <path
     style="opacity:1;fill:#ffffff;fill-opacity:1;stroke:none;stroke-width:2;stroke-linecap:round;stroke-linejoin:round;stroke-miterlimit:4;stroke-dasharray:none;stroke-opacity:1"
     d="m 24,20 a 6,6 0 0 0 -6,6 6,6 0 0 0 6,6 6,6 0 0 0 6,-6 6,6 0 0 0 -6,-6 z"
     id="path4139" />
  <circle
     r="3"
     cy="13"
     cx="15"
     id="circle4174"
     style="opacity:0.2;fill:#000000;fill-opacity:1;stroke:none;stroke-width:2;stroke-linecap:round;stroke-linejoin:round;stroke-miterlimit:4;stroke-dasharray:none;stroke-opacity:1" />
  <circle
     style="opacity:1;fill:#ffffff;fill-opacity:1;stroke:none;stroke-width:2;stroke-linecap:round;stroke-linejoin:round;stroke-miterlimit:4;stroke-dasharray:none;stroke-opacity:1"
     id="path4161"
     cx="15"
     cy="12"
     r="3" />
</svg>

<?xml version="1.0" encoding="UTF-8" standalone="no"?>
<svg id="svg2817" xmlns:rdf="http://www.w3.org/1999/02/22-rdf-syntax-ns#" xmlns="http://www.w3.org/2000/svg" height="48" width="48" version="1.0" xmlns:cc="http://creativecommons.org/ns#" xmlns:dc="http://purl.org/dc/elements/1.1/">
 <metadata id="metadata57">
  <rdf:RDF>
   <cc:Work rdf:about="">
    <dc:format>image/svg+xml</dc:format>
    <dc:type rdf:resource="http://purl.org/dc/dcmitype/StillImage"/>
    <dc:title/>
   </cc:Work>
  </rdf:RDF>
 </metadata>
 <path id="rect4141" d="m21 6a15 15 0 0 0 -15 15 15 15 0 0 0 0.502 3.816c-2.667 1.31-4.502 4.069-4.502 7.286v1.7969c0 4.487 3.5648 8.101 7.9922 8.101h28.016c4.427 0 7.992-3.614 7.992-8.102v-1.7969c0-3.4009-2.0487-6.2954-4.9668-7.5a9 9 0 0 0 1.967 -5.601 9 9 0 0 0 -9 -9 9 9 0 0 0 -2.459 0.346 15 15 0 0 0 -10.541 -4.346z" fill="#569cde"/>
 <path id="path4148" opacity=".2" d="m21 6a15 15 0 0 0 -15 15 15 15 0 0 0 0.0215 0.402 15 15 0 0 1 14.978 -14.402 15 15 0 0 1 10.541 4.346 9 9 0 0 1 2.459 -0.346 9 9 0 0 1 8.979 8.562 9 9 0 0 0 0.021 -0.562 9 9 0 0 0 -9 -9 9 9 0 0 0 -2.459 0.346 15 15 0 0 0 -10.541 -4.346zm20.561 18.867a9 9 0 0 1 -0.528 0.735c2.918 1.204 4.967 4.099 4.967 7.5v-1c0-3.188-1.811-5.911-4.439-7.235zm-35.262 0.069c-2.5524 1.349-4.2988 4.035-4.2988 7.166v1c0-3.217 1.835-5.976 4.502-7.286a15 15 0 0 1 -0.2032 -0.88z" fill="#fff"/>
 <path id="path4153" opacity=".2" d="m42.979 19.562a9 9 0 0 1 -1.9453 5.0391c0.18306 0.07556 0.35142 0.17705 0.52734 0.26563a9 9 0 0 0 1.439 -4.867 9 9 0 0 0 -0.021 -0.438zm-36.958 1.84a15 15 0 0 0 -0.0215 0.598 15 15 0 0 0 0.2988 2.936c0.069606-0.03679 0.13233-0.08437 0.20312-0.11914a15 15 0 0 1 -0.4804 -3.415zm-4.0215 12.496v1c0 4.488 3.5648 8.102 7.9922 8.102h28.016c4.427 0 7.992-3.614 7.992-8.102v-1c0 4.488-3.565 8.102-7.992 8.102h-28.016c-4.4272 0-7.992-3.614-7.992-8.102z"/>
 <path id="path4170" opacity=".2" d="m24 15a12 12 0 0 0 -12 12 12 12 0 0 0 12 12 12 12 0 0 0 12 -12 12 12 0 0 0 -12 -12zm0 3a9 9 0 0 1 9 9 9 9 0 0 1 -9 9 9 9 0 0 1 -9 -9 9 9 0 0 1 9 -9z"/>
 <path id="path4167" d="m24 14a12 12 0 0 0 -12 12 12 12 0 0 0 12 12 12 12 0 0 0 12 -12 12 12 0 0 0 -12 -12zm0 3a9 9 0 0 1 9 9 9 9 0 0 1 -9 9 9 9 0 0 1 -9 -9 9 9 0 0 1 9 -9z" fill="#aaceee"/>
 <path id="path4172" opacity=".2" d="m24 21a6 6 0 0 0 -6 6 6 6 0 0 0 6 6 6 6 0 0 0 6 -6 6 6 0 0 0 -6 -6z"/>
 <path id="path4139" d="m24 20a6 6 0 0 0 -6 6 6 6 0 0 0 6 6 6 6 0 0 0 6 -6 6 6 0 0 0 -6 -6z" fill="#fff"/>
 <circle id="circle4174" opacity=".2" cx="15" cy="13" r="3"/>
 <circle id="path4161" cy="12" cx="15" r="3" fill="#fff"/>
</svg>
